!!!OTL: General Ney (3-31), S. 101
!!!id: P1003
**kern
*clefG2
*k[]
*C:
*M2/4
4r
{4g
=2
4g
4g
=3
8cc
8b
4a
=4
4g
8g
8f
=5
2e}
=6
{4g
4g
=7
4a
4g
=8
4f
4g
=9
2e}
=10
4r
=11
{8e
8e
=12
4d
4d
=13
8.f
16f
4f
=14
8e
8g
4cc
=15
2cc}
=16
4r
=17
{4g
=18
8.g
16f
4f
=19
4d
4d
=20
8e
8g
4cc
=21
2cc}
=22
4r
=23
{8.cc
16cc
=24
8.cc
16cc
4ee
=25
8dd
8dd
8cc
8b
=26
2a
=27
8g}
=28
{8cc
8b
8cc
=29
8.dd
16dd
4dd
=30
8b
8b
4b
=31
2cc}
=32
4r
=33
{8.cc
16cc
=34
8.cc
16cc
4ee
=35
8dd
8dd
8cc
8b
=36
2a
=37
8g}
=38
{8cc
8b
8cc
=39
8.dd
16dd
4dd
=40
8b
8b
4b
=41
2cc}
==
*-
!!!minrhy: 16
!!!meters: 2/4 ]  ZZ[8
!!!cut: General Ney (3-31), S. 101
!!!reg: Lothringen
!!!trd: PINCK, Louis: Verklingende Weisen, Bd3, Metz 1933
!!!rhy1: 0_X__  X__X__  X_X_X__  X__X_X_  X___   (x2)
!!!rhy2: X__X__  X__X__  X__X__  X___  0_
!!!key: P1003  16  C 2/4 ]  ZZ[8
!!!mod: HEPTATONIK IONISCH]  AMBITUS[9
!!!kad: 33+1+15+15+1
!!!akz: 5+153_5643_243+1_523+1_+1+265_+27+1_+1+265_+27+1_
!!!fot: 'a__b__c__d__e__f__e__f__
!!!for: 'a__b__c__d__e__f__e__fv_
!!!fok: '^d_\__/__Va_^d_-__^d_-__
!! PHRAS[VORWIEGEND AUFTAKTIG]
!!!fkt: historisches, Soldatenlied
!! LOTH VKL
!! PR[10] 2K[19] 2G[10] 3K[5] 3G[5] 4A[7] 4Ü[0] 5A[0] 6K[0] 6G[0]
!! 7K[0] 7G[0] 8A[0] MEHR[0] SI[45] ABS[42] SR[29] SP[17]
!! ST[16] 2k[19] 2g[17] 3k[2] 3g[0] 4d[7] 4ü[0] 5d[0] 6k[0] 6g[0]
!! 7k[0] 7g[0] 8d[0] mehr[0] si[45] dm[0] sr[36] sp[10]
!! 1F[25] 2F[43] 3F[11] 4F[0] LF[0] 2P[20] 3P[0] 4P[0] TRI[0] DF[4] AB[44]
!! TF[0] U3K[0] U3[0] U4[0] U4Ü[0] U5[12] U6K[0] U6[0] U7K[0] U7[5]
!! N1[23] N2K[0] N2[30] N3K[19] N3[0] N4[7] N4Ü[0] N5[5] N6K[0] N6[0]
!!!n7k: 0] N7[0] O1[0] O2K[0] O2[0] O3K[0] O3[0] HÖ[0
